groups/amino_sidechains/phenylalanine.svg

<?xml version='1.0' encoding='iso-8859-1'?>
<svg version='1.1' baseProfile='full'
              xmlns='http://www.w3.org/2000/svg'
                      xmlns:rdkit='http://www.rdkit.org/xml'
                      xmlns:xlink='http://www.w3.org/1999/xlink'
                  xml:space='preserve'
width='256px' height='256px' viewBox='0 0 256 256'>
<!-- END OF HEADER -->
<rect style='opacity:1.0;fill:#FFFFFF;stroke:none' width='256.0' height='256.0' x='0.0' y='0.0'> </rect>
<path class='bond-0 atom-0 atom-1' d='M 171.3,38.2 L 120.6,67.3' style='fill:none;fill-rule:evenodd;stroke:#000000;stroke-width:2.0px;stroke-linecap:butt;stroke-linejoin:miter;stroke-opacity:1' />
<path class='bond-1 atom-1 atom-2' d='M 120.6,67.3 L 120.5,125.8' style='fill:none;fill-rule:evenodd;stroke:#000000;stroke-width:2.0px;stroke-linecap:butt;stroke-linejoin:miter;stroke-opacity:1' />
<path class='bond-2 atom-2 atom-3' d='M 120.5,125.8 L 69.8,155.0' style='fill:none;fill-rule:evenodd;stroke:#000000;stroke-width:2.0px;stroke-linecap:butt;stroke-linejoin:miter;stroke-opacity:1' />
<path class='bond-2 atom-2 atom-3' d='M 120.5,135.9 L 78.6,160.0' style='fill:none;fill-rule:evenodd;stroke:#000000;stroke-width:2.0px;stroke-linecap:butt;stroke-linejoin:miter;stroke-opacity:1' />
<path class='bond-3 atom-3 atom-4' d='M 69.8,155.0 L 69.7,213.5' style='fill:none;fill-rule:evenodd;stroke:#000000;stroke-width:2.0px;stroke-linecap:butt;stroke-linejoin:miter;stroke-opacity:1' />
<path class='bond-4 atom-4 atom-5' d='M 69.7,213.5 L 120.3,242.8' style='fill:none;fill-rule:evenodd;stroke:#000000;stroke-width:2.0px;stroke-linecap:butt;stroke-linejoin:miter;stroke-opacity:1' />
<path class='bond-4 atom-4 atom-5' d='M 78.5,208.4 L 120.3,232.7' style='fill:none;fill-rule:evenodd;stroke:#000000;stroke-width:2.0px;stroke-linecap:butt;stroke-linejoin:miter;stroke-opacity:1' />
<path class='bond-5 atom-5 atom-6' d='M 120.3,242.8 L 171.0,213.7' style='fill:none;fill-rule:evenodd;stroke:#000000;stroke-width:2.0px;stroke-linecap:butt;stroke-linejoin:miter;stroke-opacity:1' />
<path class='bond-6 atom-6 atom-7' d='M 171.0,213.7 L 171.1,155.2' style='fill:none;fill-rule:evenodd;stroke:#000000;stroke-width:2.0px;stroke-linecap:butt;stroke-linejoin:miter;stroke-opacity:1' />
<path class='bond-6 atom-6 atom-7' d='M 162.2,208.6 L 162.3,160.2' style='fill:none;fill-rule:evenodd;stroke:#000000;stroke-width:2.0px;stroke-linecap:butt;stroke-linejoin:miter;stroke-opacity:1' />
<path class='bond-7 atom-7 atom-2' d='M 171.1,155.2 L 120.5,125.8' style='fill:none;fill-rule:evenodd;stroke:#000000;stroke-width:2.0px;stroke-linecap:butt;stroke-linejoin:miter;stroke-opacity:1' />
<path d='M 123.2,65.9 L 120.6,67.3 L 120.6,70.2' style='fill:none;stroke:#000000;stroke-width:2.0px;stroke-linecap:butt;stroke-linejoin:miter;stroke-miterlimit:10;stroke-opacity:1;' />
<path d='M 72.3,153.5 L 69.8,155.0 L 69.8,157.9' style='fill:none;stroke:#000000;stroke-width:2.0px;stroke-linecap:butt;stroke-linejoin:miter;stroke-miterlimit:10;stroke-opacity:1;' />
<path d='M 69.7,210.5 L 69.7,213.5 L 72.2,214.9' style='fill:none;stroke:#000000;stroke-width:2.0px;stroke-linecap:butt;stroke-linejoin:miter;stroke-miterlimit:10;stroke-opacity:1;' />
<path d='M 117.7,241.3 L 120.3,242.8 L 122.8,241.3' style='fill:none;stroke:#000000;stroke-width:2.0px;stroke-linecap:butt;stroke-linejoin:miter;stroke-miterlimit:10;stroke-opacity:1;' />
<path d='M 168.5,215.1 L 171.0,213.7 L 171.0,210.7' style='fill:none;stroke:#000000;stroke-width:2.0px;stroke-linecap:butt;stroke-linejoin:miter;stroke-miterlimit:10;stroke-opacity:1;' />
<path d='M 171.1,158.1 L 171.1,155.2 L 168.6,153.7' style='fill:none;stroke:#000000;stroke-width:2.0px;stroke-linecap:butt;stroke-linejoin:miter;stroke-miterlimit:10;stroke-opacity:1;' />
<path class='atom-1' d='M156.77,12.8 C154.868,13.8933 156.326,16.4291 158.228,15.3358 C160.129,14.2426 161.587,16.7784 159.685,17.8716 C157.783,18.9649 159.241,21.5007 161.143,20.4075 C163.045,19.3142 164.503,21.85 162.601,22.9433 C160.699,24.0366 162.157,26.5724 164.058,25.4791 C165.96,24.3858 167.418,26.9217 165.516,28.0149 C163.614,29.1082 165.072,31.644 166.974,30.5508 C168.876,29.4575 170.333,31.9933 168.432,33.0866 C166.53,34.1799 167.988,36.7157 169.889,35.6224 C171.791,34.5291 173.249,37.065 171.347,38.1582 C169.445,39.2515 170.903,41.7873 172.805,40.6941 C174.707,39.6008 176.164,42.1366 174.263,43.2299 C172.361,44.3231 173.818,46.859 175.72,45.7657 C177.622,44.6724 179.08,47.2083 177.178,48.3015 C175.276,49.3948 176.734,51.9306 178.636,50.8373 C180.538,49.7441 181.995,52.2799 180.094,53.3732 C178.192,54.4664 179.649,57.0023 181.551,55.909 C183.453,54.8157 184.911,57.3515 183.009,58.4448 C181.107,59.5381 182.565,62.0739 184.467,60.9806 C186.369,59.8874 187.826,62.4232 185.924,63.5165' style='fill:none;stroke:#7F7F7F;stroke-width:2.0px;stroke-linecap:butt;stroke-linejoin:miter;stroke-opacity:1' />
</svg>

<svg height="256" viewBox="0 0 256 256" width="256" xmlns="http://www.w3.org/2000/svg"><path d="m0 0h256v256h-256z" fill="#fff"/><g fill="none" stroke-width="2"><path d="m171.3 38.2-50.7 29.1" stroke="#000"/><path d="m120.6 67.3-.1 58.5" stroke="#000"/><path d="m120.5 125.8-50.7 29.2" stroke="#000"/><path d="m120.5 135.9-41.9 24.1" stroke="#000"/><path d="m69.8 155-.1 58.5" stroke="#000"/><path d="m69.7 213.5 50.6 29.3" stroke="#000"/><path d="m78.5 208.4 41.8 24.3" stroke="#000"/><path d="m120.3 242.8 50.7-29.1" stroke="#000"/><path d="m171 213.7.1-58.5" stroke="#000"/><path d="m162.2 208.6.1-48.4" stroke="#000"/><path d="m171.1 155.2-50.6-29.4" stroke="#000"/><path d="m123.2 65.9-2.6 1.4v2.9" stroke="#000" stroke-miterlimit="10"/><path d="m72.3 153.5-2.5 1.5v2.9" stroke="#000" stroke-miterlimit="10"/><path d="m69.7 210.5v3l2.5 1.4" stroke="#000" stroke-miterlimit="10"/><path d="m117.7 241.3 2.6 1.5 2.5-1.5" stroke="#000" stroke-miterlimit="10"/><path d="m168.5 215.1 2.5-1.4v-3" stroke="#000" stroke-miterlimit="10"/><path d="m171.1 158.1v-2.9l-2.5-1.5" stroke="#000" stroke-miterlimit="10"/><path d="m156.77 12.8c-1.902 1.093-.444 3.629 1.458 2.536 1.901-1.093 3.359 1.442 1.457 2.536-1.902 1.093-.444 3.629 1.458 2.536 1.902-1.094 3.36 1.442 1.458 2.535-1.902 1.094-.444 3.629 1.457 2.536 1.902-1.093 3.36 1.443 1.458 2.536s-.444 3.629 1.458 2.536 3.359 1.442 1.458 2.536c-1.902 1.093-.444 3.629 1.457 2.535 1.902-1.093 3.36 1.443 1.458 2.536-1.902 1.094-.444 3.629 1.458 2.536s3.359 1.443 1.458 2.536c-1.902 1.093-.445 3.629 1.457 2.536 1.902-1.094 3.36 1.442 1.458 2.536-1.902 1.093-.444 3.629 1.458 2.535 1.902-1.093 3.359 1.443 1.458 2.536-1.902 1.093-.445 3.629 1.457 2.536s3.36 1.443 1.458 2.536-.444 3.629 1.458 2.536c1.902-1.094 3.359 1.442 1.457 2.536" stroke="#7f7f7f"/></g></svg>
